communes/93.svg

<?xml version="1.0" encoding="UTF-8" standalone="no"?>
<!-- Created with Inkscape (http://www.inkscape.org/) -->
<svg
   xmlns:svg="http://www.w3.org/2000/svg"
   xmlns="http://www.w3.org/2000/svg"
   version="1.0"
   width="219.07048"
   height="256.6069"
   id="svg2780">
  <defs
     id="defs2782" />
  <g
     transform="translate(-10.864684,-802.47745)"
     id="layer1">
    <path
       d="M 11.864684,803.47745 L 15.811417,969.26799 C 18.630503,1087.6898 222.16933,1087.6898 224.98843,969.26799 L 228.93517,803.47745 L 11.864684,803.47745 z"
       id="path3282"
       style="fill:#fae431;fill-opacity:1;fill-rule:evenodd;stroke:#000000;stroke-width:2;stroke-linecap:butt;stroke-miterlimit:4;stroke-dashoffset:0;stroke-opacity:1" />
    <path
       d="M 98.964241,226.09484 C 129.20903,234.80761 157.62018,225.18385 185.21519,207.39882 C 172.72955,193.02407 162.50857,175.29948 162.53069,155.04998 L 165.77134,110.17954 L 82.262467,136.10468 L 87.746632,174.49383 C 89.844807,191.67967 111.2882,193.63549 98.964241,226.09484 z"
       transform="translate(0,804.33069)"
       id="path5493"
       style="fill:#000000;fill-opacity:1;fill-rule:evenodd;stroke:none;stroke-width:1px;stroke-linecap:butt;stroke-linejoin:miter;stroke-opacity:1" />
    <path
       d="M 170.09835,41.163399 L 82.566306,42.296819 C 77.37607,47.060635 70.473286,55.036161 63.87307,64.545652 C 61.719339,67.648715 61.662579,74.213774 62.046238,74.760323 C 63.242953,76.465128 63.963978,77.246418 63.103845,78.638213 C 59.02135,85.244159 51.737899,92.28464 45.65334,97.851394 C 42.719416,100.53564 39.722564,110.27341 51.11764,110.94683 C 51.010856,113.9872 50.654831,118.47408 49.260565,119.57509 C 45.132523,122.83488 47.412748,126.09068 51.607342,129.98375 C 47.403124,134.12297 46.54957,139.9303 47.914577,141.38952 C 49.730485,143.33076 54.412035,144.6177 57.639545,147.73516 C 58.780129,148.83686 58.971336,150.74486 58.168348,152.31812 C 53.149606,162.15112 61.336597,171.59546 72.269766,173.14796 C 107.5835,178.16247 143.82552,159.08784 131.14319,133.98628 C 134.91001,138.99863 140.2799,136.95669 141.73228,134.03791 C 145.10269,127.26455 157.99643,131.53581 167.08042,118.29845 L 170.09835,41.163399 z"
       transform="translate(0,804.33069)"
       id="path6026"
       style="opacity:1;fill:#000000;fill-opacity:1;fill-rule:evenodd;stroke:#fae431;stroke-width:1px;stroke-linecap:butt;stroke-linejoin:round;marker:none;marker-start:none;marker-mid:none;marker-end:none;stroke-miterlimit:4;stroke-dasharray:none;stroke-dashoffset:0;stroke-opacity:1;visibility:visible;display:inline;overflow:visible;enable-background:accumulate" />
    <path
       d="M 50.105321,107.18818 C 50.640068,104.01078 54.533299,103.84507 55.118362,108.56897 C 56.207576,117.36347 68.692104,115.1028 64.438932,101.95329"
       transform="translate(0,804.33069)"
       id="path6028"
       style="opacity:1;fill:none;fill-opacity:0.75;fill-rule:evenodd;stroke:#fae431;stroke-width:0.99921262;stroke-linecap:round;stroke-linejoin:miter;marker:none;marker-start:none;marker-mid:none;marker-end:none;stroke-miterlimit:4;stroke-dasharray:none;stroke-dashoffset:0;stroke-opacity:1;visibility:visible;display:inline;overflow:visible;enable-background:accumulate" />
    <path
       d="M 70.866142,86.124002 C 74.160861,89.613924 80.517506,88.367523 82.885668,85.750081 C 85.25383,83.132639 71.543419,75.404953 71.543419,75.404953 L 75.282622,72.16431"
       transform="translate(0,804.33069)"
       id="path6032"
       style="fill:none;fill-opacity:0.75;fill-rule:evenodd;stroke:#ffffff;stroke-width:0.99921262;stroke-linecap:round;stroke-linejoin:round;stroke-miterlimit:4;stroke-dasharray:none;stroke-opacity:1" />
    <path
       d="M 77.599156,892.67683 C 72.004046,888.95705 72.249399,884.36371 73.70507,880.70252 C 78.804892,881.635 84.110057,884.8544 86.956022,888.54858 C 84.78835,890.93237 81.460096,892.55697 77.599156,892.67683 z M 78.523264,888.08653 C 79.751924,888.11912 80.554286,886.66406 78.897184,885.15749 C 78.212098,884.53463 76.112623,883.07797 75.594222,884.09805 C 74.783712,885.69292 76.576122,888.03488 78.523264,888.08653 z"
       id="path6030"
       style="fill:#ffffff;fill-opacity:1;fill-rule:evenodd;stroke:none;stroke-width:1px;stroke-linecap:butt;stroke-linejoin:miter;stroke-opacity:1" />
    <path
       d="M 68.302776,68.300467 C 76.030462,65.059824 81.763907,68.799028 83.508868,70.045429"
       transform="translate(0,804.33069)"
       id="path6038"
       style="fill:none;fill-opacity:0.75;fill-rule:evenodd;stroke:#fae431;stroke-width:0.99921262;stroke-linecap:round;stroke-linejoin:miter;stroke-miterlimit:4;stroke-dasharray:none;stroke-opacity:1" />
    <path
       d="M 70.297017,134.04812 C 71.905107,132.17715 65.703369,130.38184 64.314293,128.87556 C 58.090836,122.12701 50.102734,118.35587 48.111079,123.14211 C 46.941801,125.95206 50.841313,130.41499 54.343084,130.49588 C 59.543534,130.61601 68.776105,135.81766 70.297017,134.04812 z"
       transform="translate(0,804.33069)"
       id="path6042"
       style="fill:#d61000;fill-opacity:1;fill-rule:evenodd;stroke:#000000;stroke-width:1px;stroke-linecap:butt;stroke-linejoin:miter;stroke-opacity:1" />
    <path
       d="M 66.183894,135.98004 C 67.444792,133.87243 48.442592,123.79076 47.674839,137.60036 C 47.136788,147.34061 64.978337,137.99515 66.183894,135.98004 z"
       transform="translate(0,804.33069)"
       id="path6044"
       style="fill:#d61000;fill-opacity:1;fill-rule:evenodd;stroke:#000000;stroke-width:1px;stroke-linecap:butt;stroke-linejoin:miter;stroke-opacity:1" />
    <path
       d="M 149.69276,109.80562 C 146.21835,106.29921 141.07084,109.42061 141.73228,113.50563 C 143.07183,121.77854 141.45114,124.25611 138.10123,126.88131 C 139.79015,126.42935 141.31365,125.97739 142.07178,125.52543"
       transform="translate(0,804.33069)"
       id="path6040"
       style="fill:none;fill-opacity:0.75;fill-rule:evenodd;stroke:#fae431;stroke-width:0.99921262;stroke-linecap:round;stroke-linejoin:round;stroke-miterlimit:4;stroke-dasharray:none;stroke-opacity:1" />
    <path
       d="M 141.73228,938.3686 C 145.10269,931.59524 143.18994,937.27664 152.27393,924.03928 C 160.22252,912.45645 149.03265,900.84823 137.84136,913.81575 C 133.20373,910.36486 134.19553,905.58918 139.07523,902.88716 C 134.71788,899.14813 137.37657,894.51621 140.83791,892.91336 C 135.94629,889.93196 136.8884,884.50213 140.13284,882.08756 C 136.19395,880.7567 134.20853,876.24696 136.60748,872.74537 C 130.54127,871.0883 130.92921,866.04484 131.67199,863.57945 C 125.71321,863.69128 124.89394,860.24499 124.97382,856.17621 C 120.42665,857.61437 116.49803,857.15366 114.75029,851.59325 C 110.06863,854.672 106.21283,853.97397 102.94035,850.00684 C 98.886192,852.79728 94.832035,853.40611 90.777877,848.24416 C 80.37119,856.81676 73.28945,837.48299 87.781326,837.6681 C 89.937983,832.6185 94.379671,829.67444 99.414995,831.67499 C 101.60304,826.08661 109.45047,824.2892 113.34015,827.2683 C 117.70542,821.78375 122.84153,822.04722 126.73649,826.2107 C 130.32494,821.51857 137.26249,820.94207 141.73228,826.56323 C 148.36736,823.24028 153.76856,825.0866 157.05454,830.79366 C 162.36103,829.12167 168.84978,830.4742 169.74582,838.37317 C 176.22912,836.99894 182.39187,840.31245 182.43709,848.5967 C 189.38623,849.07401 192.64379,854.34809 191.42675,861.64051 C 198.21917,862.85664 201.25743,867.44812 198.47745,874.68432 C 203.32258,878.43927 206.20762,884.06688 200.9452,889.31454 C 207.55541,897.18122 204.64928,902.2365 199.8876,904.64983 C 205.68019,911.46325 202.67187,915.89702 197.77238,919.45632 C 200.10025,925.41953 198.20544,929.82702 191.60301,932.50013 C 192.41623,940.06359 189.48997,943.02463 184.19977,943.0762 C 185.16444,952.51947 180.21509,952.86424 175.21012,953.12346 C 170.19646,964.29121 162.0809,960.76453 158.99349,955.0624 C 152.89975,958.56585 149.87066,954.32815 149.6513,946.42528 C 142.22558,946.97285 140.10979,943.78724 141.68792,938.45516"
       id="path6004"
       style="fill:#000000;fill-opacity:1;fill-rule:evenodd;stroke:#fae431;stroke-width:1px;stroke-linecap:butt;stroke-linejoin:round;stroke-opacity:1" />
  </g>
</svg>

<?xml version="1.0" encoding="UTF-8"?>
<svg version="1.0" viewBox="0 0 219.07 256.61" xmlns="http://www.w3.org/2000/svg">
<g transform="translate(-10.865 -802.48)">
<path d="m11.865 803.48 3.9467 165.79c2.8191 118.42 206.36 118.42 209.18 0l3.9467-165.79h-217.07z" fill="#fae431" fill-rule="evenodd" stroke="#000" stroke-width="2"/>
<path transform="translate(0 804.33)" d="m98.964 226.09c30.245 8.7128 58.656-0.91099 86.251-18.696-12.486-14.375-22.707-32.099-22.684-52.349l3.2406-44.87-83.509 25.925 5.4842 38.389c2.0982 17.186 23.542 19.142 11.218 51.601z" fill-rule="evenodd"/>
<path transform="translate(0 804.33)" d="m170.1 41.163-87.532 1.1334c-5.1902 4.7638-12.093 12.739-18.693 22.249-2.1537 3.1031-2.2105 9.6681-1.8268 10.215 1.1967 1.7048 1.9177 2.4861 1.0576 3.8779-4.0825 6.6059-11.366 13.646-17.451 19.213-2.9339 2.6842-5.9308 12.422 5.4643 13.095-0.10678 3.0404-0.46281 7.5272-1.8571 8.6283-4.128 3.2598-1.8478 6.5156 2.3468 10.409-4.2042 4.1392-5.0578 9.9466-3.6928 11.406 1.8159 1.9412 6.4975 3.2282 9.725 6.3456 1.1406 1.1017 1.3318 3.0097 0.5288 4.583-5.0187 9.833 3.1682 19.277 14.101 20.83 35.314 5.0145 71.556-14.06 58.873-39.162 3.7668 5.0124 9.1367 2.9704 10.589 0.05163 3.3704-6.7734 16.264-2.5021 25.348-15.739l3.0179-77.135z" fill-rule="evenodd" stroke="#fae431" stroke-linejoin="round" stroke-width="1px"/>
<path transform="translate(0 804.33)" d="m50.105 107.19c0.53475-3.1774 4.428-3.3431 5.013 1.3808 1.0892 8.7945 13.574 6.5338 9.3206-6.6157" fill="none" stroke="#fae431" stroke-linecap="round" stroke-width=".99921"/>
<path transform="translate(0 804.33)" d="m70.866 86.124c3.2947 3.4899 9.6514 2.2435 12.02-0.37392s-11.342-10.345-11.342-10.345l3.7392-3.2406" fill="none" stroke="#fff" stroke-linecap="round" stroke-linejoin="round" stroke-width=".99921"/>
<path d="m77.599 892.68c-5.5951-3.7198-5.3498-8.3131-3.8941-11.974 5.0998 0.93248 10.405 4.1519 13.251 7.8461-2.1677 2.3838-5.4959 4.0084-9.3569 4.1282zm0.92411-4.5903c1.2287 0.03259 2.031-1.4225 0.37392-2.929-0.68509-0.62286-2.7846-2.0795-3.303-1.0594-0.81051 1.5949 0.9819 3.9368 2.929 3.9885z" fill="#fff" fill-rule="evenodd"/>
<path transform="translate(0 804.33)" d="m68.303 68.3c7.7277-3.2406 13.461 0.49856 15.206 1.745" fill="none" stroke="#fae431" stroke-linecap="round" stroke-width=".99921"/>
<path transform="translate(0 804.33)" d="m70.297 134.05c1.6081-1.871-4.5936-3.6663-5.9827-5.1726-6.2235-6.7486-14.212-10.52-16.203-5.7334-1.1693 2.81 2.7302 7.2729 6.232 7.3538 5.2004 0.12013 14.433 5.3218 15.954 3.5522z" fill="#d61000" fill-rule="evenodd" stroke="#000" stroke-width="1px"/>
<path transform="translate(0 804.33)" d="m66.184 135.98c1.2609-2.1076-17.741-12.189-18.509 1.6203-0.53805 9.7402 17.303 0.39479 18.509-1.6203z" fill="#d61000" fill-rule="evenodd" stroke="#000" stroke-width="1px"/>
<path transform="translate(0 804.33)" d="m149.69 109.81c-3.4744-3.5064-8.6219-0.38501-7.9605 3.7 1.3396 8.2729-0.28114 10.75-3.631 13.376 1.6889-0.45196 3.2124-0.90392 3.9706-1.3559" fill="none" stroke="#fae431" stroke-linecap="round" stroke-linejoin="round" stroke-width=".99921"/>
<path d="m141.73 938.37c3.3704-6.7734 1.4577-1.092 10.542-14.329 7.9486-11.583-3.2413-23.191-14.433-10.224-4.6376-3.4509-3.6458-8.2266 1.2339-10.929-4.3574-3.739-1.6987-8.371 1.7627-9.9738-4.8916-2.9814-3.9495-8.4112-0.70507-10.826-3.9389-1.3309-5.9243-5.8406-3.5254-9.3422-6.0662-1.6571-5.6783-6.7005-4.9355-9.1659-5.9588 0.11183-6.778-3.3345-6.6982-7.4032-4.5472 1.4382-8.4758 0.97745-10.224-4.583-4.6817 3.0788-8.5375 2.3807-11.81-1.5864-4.0542 2.7904-8.1083 3.3993-12.162-1.7627-10.407 8.5726-17.488-10.761-2.9966-10.576 2.1567-5.0496 6.5983-7.9937 11.634-5.9931 2.188-5.5884 10.035-7.3858 13.925-4.4067 4.3653-5.4846 9.5014-5.2211 13.396-1.0576 3.5884-4.6921 10.526-5.2686 14.996 0.35253 6.6351-3.323 12.036-1.4766 15.322 4.2304 5.3065-1.672 11.795-0.31946 12.691 7.5795 6.4833-1.3742 12.646 1.9393 12.691 10.224 6.9491 0.47731 10.207 5.7514 8.9897 13.044 6.7924 1.2161 9.8307 5.8076 7.0507 13.044 4.8451 3.755 7.7302 9.3826 2.4678 14.63 6.6102 7.8667 3.7041 12.922-1.0576 15.335 5.7926 6.8134 2.7843 11.247-2.1152 14.806 2.3279 5.9632 0.43306 10.371-6.1694 13.044 0.81322 7.5635-2.113 10.524-7.4032 10.576 0.96467 9.4433-3.9847 9.788-8.9896 10.047-5.0137 11.168-13.129 7.6411-16.217 1.9389-6.0937 3.5034-9.1228-0.73425-9.3422-8.6371-7.4257 0.54757-9.5415-2.638-7.9634-7.9701" fill-rule="evenodd" stroke="#fae431" stroke-linejoin="round" stroke-width="1px"/>
</g>
</svg>
